src/components/assets/work-conditions/3.svg

<svg width="205" height="112" viewBox="0 0 205 112" fill="none" xmlns="http://www.w3.org/2000/svg">
<path d="M166 88.8159C183.673 88.8159 198 74.489 198 56.8159C198 39.1428 183.673 24.8159 166 24.8159C148.327 24.8159 134 39.1428 134 56.8159C134 74.489 148.327 88.8159 166 88.8159Z" fill="#232323"/>
<path d="M166.271 36.8159L166 37.7177V63.8844L166.271 64.1493L178.667 56.9696L166.271 36.8159Z" fill="#343434"/>
<path d="M166 36.8159L153.333 56.9695L166 64.1493V51.4487V36.8159Z" fill="#505050"/>
<path d="M166.154 66.7495L166 66.9341V76.3735L166.154 76.8158L178.667 59.4824L166.154 66.7495Z" fill="#3C3C3B"/>
<path d="M166 76.8158V66.7495L153.333 59.4824L166 76.8158Z" fill="#505050"/>
<path d="M166 64.1491L178.667 56.9886L166 51.4824V64.1491Z" fill="#2E2E2E"/>
<path d="M153.333 56.9886L166 64.1491V51.4824L153.333 56.9886Z" fill="#393939"/>
<g filter="url(#filter0_f)">
<path d="M166 86.1491C182.2 86.1491 195.333 73.0161 195.333 56.8158C195.333 40.6154 182.2 27.4824 166 27.4824C149.8 27.4824 136.667 40.6154 136.667 56.8158C136.667 73.0161 149.8 86.1491 166 86.1491Z" stroke="#FF7671" stroke-width="1.5"/>
</g>
<path d="M166 86.3543C182.314 86.3543 195.538 73.1294 195.538 56.8158C195.538 40.5022 182.314 27.2773 166 27.2773C149.686 27.2773 136.462 40.5022 136.462 56.8158C136.462 73.1294 149.686 86.3543 166 86.3543Z" stroke="#FF7671" stroke-width="1.5"/>
<g filter="url(#filter1_d)">
<path d="M116 95.8159C138.091 95.8159 156 77.9073 156 55.8159C156 33.7245 138.091 15.8159 116 15.8159C93.9086 15.8159 76 33.7245 76 55.8159C76 77.9073 93.9086 95.8159 116 95.8159Z" fill="#232323"/>
</g>
<path d="M115.5 92.8159C135.658 92.8159 152 76.4743 152 56.3159C152 36.1575 135.658 19.8159 115.5 19.8159C95.3416 19.8159 79 36.1575 79 56.3159C79 76.4743 95.3416 92.8159 115.5 92.8159Z" stroke="#FF7671" stroke-width="1.5"/>
<g filter="url(#filter2_f)">
<path d="M115.5 92.8159C135.658 92.8159 152 76.4743 152 56.3159C152 36.1575 135.658 19.8159 115.5 19.8159C95.3416 19.8159 79 36.1575 79 56.3159C79 76.4743 95.3416 92.8159 115.5 92.8159Z" stroke="#FF7671" stroke-width="1.5"/>
</g>
<path d="M115.464 31.8267L140.241 56.2647L115.464 80.7029L90.6861 56.2647L115.464 31.8267Z" fill="#505050"/>
<path d="M115.463 64.239L90.6653 56.2634L115.463 31.8257L140.261 56.2634L115.463 64.239Z" fill="#2E2E2E"/>
<path d="M99.2908 54.6685H110.612L115.463 49.3515L120.854 54.6685H132.175L115.463 36.8569L99.2908 54.6685Z" fill="#646464"/>
<path opacity="0.42" d="M115.463 80.7011V31.8257L140.24 56.2634L115.463 80.7011V80.7011Z" fill="#373737"/>
<g filter="url(#filter3_d)">
<path d="M56.5 106.816C84.3904 106.816 107 84.2063 107 56.3159C107 28.4255 84.3904 5.81592 56.5 5.81592C28.6096 5.81592 6 28.4255 6 56.3159C6 84.2063 28.6096 106.816 56.5 106.816Z" fill="#232323"/>
</g>
<path d="M56.5 102.608C82.0662 102.608 102.792 81.8823 102.792 56.3161C102.792 30.7499 82.0662 10.0244 56.5 10.0244C30.9338 10.0244 10.2083 30.7499 10.2083 56.3161C10.2083 81.8823 30.9338 102.608 56.5 102.608Z" stroke="#FF7671" stroke-width="1.5675"/>
<g filter="url(#filter4_f)">
<path d="M56.5 102.608C82.0662 102.608 102.792 81.8823 102.792 56.3161C102.792 30.7499 82.0662 10.0244 56.5 10.0244C30.9338 10.0244 10.2083 30.7499 10.2083 56.3161C10.2083 81.8823 30.9338 102.608 56.5 102.608Z" stroke="#FF7671" stroke-width="1.5675"/>
</g>
<path d="M56.5 81.5659C70.4452 81.5659 81.75 70.2611 81.75 56.3159C81.75 42.3707 70.4452 31.0659 56.5 31.0659C42.5548 31.0659 31.25 42.3707 31.25 56.3159C31.25 70.2611 42.5548 81.5659 56.5 81.5659Z" fill="#232323"/>
<path fill-rule="evenodd" clip-rule="evenodd" d="M80.3228 48.911C80.3228 60.8074 70.7959 70.4513 59.044 70.4513C47.292 70.4513 37.7652 60.8074 37.7652 48.911C37.7652 37.0146 47.292 27.3706 59.044 27.3706C70.7959 27.3706 80.3228 37.0146 80.3228 48.911ZM69.6951 43.0212C68.9913 43.7574 68.3813 44.0662 68.1936 44.1612L68.1467 44.2087C64.0411 43.3299 62.5631 41.1925 62.5631 41.1925C66.4341 41.1688 69.9297 42.095 72.4869 43.6624C72.4869 43.6624 71.1027 43.2112 69.6951 43.0212Z" fill="#595858"/>
<path d="M73.9884 42.4514C75.5133 44.5413 76.311 47.0112 76.311 49.5761C76.311 52.6872 75.0441 55.5609 72.8857 57.8883L74.1995 62.8518H78.1878L82.3873 58.0308L83.5134 50.9773L83.748 46.7737L79.5955 42.0239L73.9884 42.4514Z" fill="#505050"/>
<path d="M72.4849 59.3955C74.9574 56.9237 76.4836 53.528 76.4836 49.7805C76.4836 47.5623 75.9489 45.4673 74.9996 43.6143" stroke="#232323" stroke-width="1.254"/>
<path d="M27.771 63.4218L28.4983 66.343C28.4983 66.343 37.0849 84.1785 56.4164 90.8045C56.4164 90.8045 74.0039 83.2048 81.8163 70.3091L71.0324 60.7857C71.0324 60.7857 65.871 64.9418 58.1994 64.9418C50.5278 64.9418 40.1113 60.3107 40.1113 50.7636C40.1113 41.2165 50.9032 37.7254 50.9032 37.7254L46.3049 36.5854H34.5511L27.0906 54.7772L27.771 63.4218Z" fill="#505050"/>
<path d="M92.7334 43.3723C92.405 43.0398 84.0343 32.7565 57.9226 23.6606C57.0973 23.0891 56.65 22.9126 56.5806 23.1313C32.3268 29.392 20.4278 42.5497 20.4278 43.3723C20.4278 44.1949 23.9 56.5581 26.1522 61.5928C26.3399 62.0203 29.3428 67.3876 31.5716 70.3087C30.2578 67.3876 28.8267 64.8465 28.8267 60.4766C28.8267 48.1509 38.2579 38.1288 50.0586 37.7013C50.3401 37.7013 50.6451 37.7013 50.9266 37.7251L48.1113 34.8752C48.1113 34.8752 59.4428 32.9515 73.9884 41.8574C73.9884 41.8574 74.1995 42.3086 73.9884 43.6386C73.9884 43.6386 80.8389 46.631 81.4254 52.4495C82.0119 58.268 78.3755 61.5928 75.443 62.0678C75.443 62.0678 76.9679 59.6692 74.6218 58.3867C74.1292 58.1017 73.5426 57.983 72.9561 58.0067C68.4751 58.0067 67.959 63.184 67.959 63.184C67.9121 63.4453 67.9121 63.7065 67.9121 63.9678C67.9121 63.9678 67.1614 71.5437 80.487 71.4012C80.487 71.4012 87.2436 63.659 89.0266 56.7006C89.6835 54.1357 90.1528 52.212 90.4577 50.787C91.2085 48.7684 91.9358 45.7947 92.6396 43.6335L92.7334 43.3723Z" fill="#232323"/>
<path fill-rule="evenodd" clip-rule="evenodd" d="M57.3079 22.1985C61.0147 23.4336 78.8682 29.8514 92.9915 42.2025L93.32 42.4447L93.2496 42.8564C93.2496 42.9533 91.7012 52.3498 86.4929 62.9089C83.4196 69.1329 79.6893 74.5577 75.4195 79.0138C70.1643 84.487 64.088 88.5314 57.3079 91.0501L56.9091 91.1954L56.4868 91.3649L56.0879 91.2196L55.6891 91.0743C48.909 88.5556 42.8092 84.5112 37.5775 79.038C33.3077 74.5577 29.5774 69.1571 26.5041 62.9331C21.5117 52.7884 19.9036 43.7564 19.7583 42.9399C19.752 42.9046 19.7484 42.8846 19.7474 42.8806L19.6771 42.4689L19.9821 42.2025C34.1053 29.8514 51.9589 23.4336 55.6657 22.1985L56.4868 21.9321L56.956 22.0774L57.3079 22.1985ZM74.3872 77.9966C78.5632 73.6374 82.1996 68.3337 85.2026 62.255C89.707 53.1248 91.4196 44.9149 91.7716 43.0502C77.2963 30.5295 58.9736 24.2813 56.4868 23.4579C53.9765 24.2813 35.6772 30.5295 21.202 43.0502C21.5539 44.9392 23.2431 53.149 27.771 62.3034C30.7739 68.3821 34.4103 73.6616 38.5863 78.0208C43.7711 83.4214 49.777 87.369 56.4868 89.815C63.1965 87.369 69.2024 83.3972 74.3872 77.9966Z" fill="#505050"/>
<defs>
<filter id="filter0_f" x="127.762" y="18.5776" width="76.4764" height="76.4764" filterUnits="userSpaceOnUse" color-interpolation-filters="sRGB">
<feFlood flood-opacity="0" result="BackgroundImageFix"/>
<feBlend mode="normal" in="SourceGraphic" in2="BackgroundImageFix" result="shape"/>
<feGaussianBlur stdDeviation="4.07742" result="effect1_foregroundBlur"/>
</filter>
<filter id="filter1_d" x="72" y="11.8159" width="88" height="88" filterUnits="userSpaceOnUse" color-interpolation-filters="sRGB">
<feFlood flood-opacity="0" result="BackgroundImageFix"/>
<feColorMatrix in="SourceAlpha" type="matrix" values="0 0 0 0 0 0 0 0 0 0 0 0 0 0 0 0 0 0 127 0"/>
<feOffset/>
<feGaussianBlur stdDeviation="2"/>
<feColorMatrix type="matrix" values="0 0 0 0 0.0705882 0 0 0 0 0.0705882 0 0 0 0 0.0705882 0 0 0 1 0"/>
<feBlend mode="normal" in2="BackgroundImageFix" result="effect1_dropShadow"/>
<feBlend mode="normal" in="SourceGraphic" in2="effect1_dropShadow" result="shape"/>
</filter>
<filter id="filter2_f" x="70.0952" y="10.9111" width="90.8097" height="90.8097" filterUnits="userSpaceOnUse" color-interpolation-filters="sRGB">
<feFlood flood-opacity="0" result="BackgroundImageFix"/>
<feBlend mode="normal" in="SourceGraphic" in2="BackgroundImageFix" result="shape"/>
<feGaussianBlur stdDeviation="4.07742" result="effect1_foregroundBlur"/>
</filter>
<filter id="filter3_d" x="2" y="1.81592" width="109" height="109" filterUnits="userSpaceOnUse" color-interpolation-filters="sRGB">
<feFlood flood-opacity="0" result="BackgroundImageFix"/>
<feColorMatrix in="SourceAlpha" type="matrix" values="0 0 0 0 0 0 0 0 0 0 0 0 0 0 0 0 0 0 127 0"/>
<feOffset/>
<feGaussianBlur stdDeviation="2"/>
<feColorMatrix type="matrix" values="0 0 0 0 0.0705882 0 0 0 0 0.0705882 0 0 0 0 0.0705882 0 0 0 1 0"/>
<feBlend mode="normal" in2="BackgroundImageFix" result="effect1_dropShadow"/>
<feBlend mode="normal" in="SourceGraphic" in2="effect1_dropShadow" result="shape"/>
</filter>
<filter id="filter4_f" x="0.902747" y="0.718909" width="111.194" height="111.194" filterUnits="userSpaceOnUse" color-interpolation-filters="sRGB">
<feFlood flood-opacity="0" result="BackgroundImageFix"/>
<feBlend mode="normal" in="SourceGraphic" in2="BackgroundImageFix" result="shape"/>
<feGaussianBlur stdDeviation="4.26091" result="effect1_foregroundBlur"/>
</filter>
</defs>
</svg>

<svg width="205" height="112" fill="none" xmlns="http://www.w3.org/2000/svg"><path d="M166 88.816c17.673 0 32-14.327 32-32 0-17.673-14.327-32-32-32-17.673 0-32 14.327-32 32 0 17.673 14.327 32 32 32z" fill="#232323"/><path d="M166.271 36.816l-.271.902v26.166l.271.265 12.396-7.18-12.396-20.153z" fill="#343434"/><path d="M166 36.816l-12.667 20.153L166 64.15V36.816z" fill="#505050"/><path d="M166.154 66.75l-.154.184v9.44l.154.442 12.513-17.334-12.513 7.267z" fill="#3C3C3B"/><path d="M166 76.816V66.749l-12.667-7.267L166 76.816z" fill="#505050"/><path d="M166 64.15l12.667-7.161L166 51.482V64.15z" fill="#2E2E2E"/><path d="M153.333 56.989L166 64.149V51.482l-12.667 5.507z" fill="#393939"/><g filter="url(#filter0_f)"><path d="M166 86.15c16.2 0 29.333-13.134 29.333-29.334S182.2 27.482 166 27.482s-29.333 13.133-29.333 29.334c0 16.2 13.133 29.333 29.333 29.333z" stroke="#FF7671" stroke-width="1.5"/></g><path d="M166 86.354c16.314 0 29.538-13.225 29.538-29.538 0-16.314-13.224-29.539-29.538-29.539s-29.538 13.225-29.538 29.539c0 16.313 13.224 29.538 29.538 29.538z" stroke="#FF7671" stroke-width="1.5"/><g filter="url(#filter1_d)"><path d="M116 95.816c22.091 0 40-17.909 40-40 0-22.092-17.909-40-40-40s-40 17.908-40 40c0 22.091 17.909 40 40 40z" fill="#232323"/></g><path d="M115.5 92.816c20.158 0 36.5-16.342 36.5-36.5 0-20.159-16.342-36.5-36.5-36.5S79 36.157 79 56.316c0 20.158 16.342 36.5 36.5 36.5z" stroke="#FF7671" stroke-width="1.5"/><g filter="url(#filter2_f)"><path d="M115.5 92.816c20.158 0 36.5-16.342 36.5-36.5 0-20.159-16.342-36.5-36.5-36.5S79 36.157 79 56.316c0 20.158 16.342 36.5 36.5 36.5z" stroke="#FF7671" stroke-width="1.5"/></g><path d="M115.464 31.827l24.777 24.438-24.777 24.438-24.778-24.438 24.778-24.438z" fill="#505050"/><path d="M115.463 64.239l-24.798-7.976 24.798-24.437 24.798 24.437-24.798 7.976z" fill="#2E2E2E"/><path d="M99.29 54.669h11.322l4.851-5.317 5.391 5.317h11.321l-16.712-17.812-16.172 17.812z" fill="#646464"/><path opacity=".42" d="M115.463 80.701V31.826l24.777 24.437-24.777 24.438z" fill="#373737"/><g filter="url(#filter3_d)"><path d="M56.5 106.816c27.89 0 50.5-22.61 50.5-50.5s-22.61-50.5-50.5-50.5S6 28.426 6 56.316s22.61 50.5 50.5 50.5z" fill="#232323"/></g><path d="M56.5 102.608c25.566 0 46.292-20.726 46.292-46.292 0-25.566-20.726-46.292-46.292-46.292-25.566 0-46.292 20.726-46.292 46.292 0 25.566 20.726 46.292 46.292 46.292z" stroke="#FF7671" stroke-width="1.567"/><g filter="url(#filter4_f)"><path d="M56.5 102.608c25.566 0 46.292-20.726 46.292-46.292 0-25.566-20.726-46.292-46.292-46.292-25.566 0-46.292 20.726-46.292 46.292 0 25.566 20.726 46.292 46.292 46.292z" stroke="#FF7671" stroke-width="1.567"/></g><path d="M56.5 81.566c13.945 0 25.25-11.305 25.25-25.25s-11.305-25.25-25.25-25.25-25.25 11.305-25.25 25.25 11.305 25.25 25.25 25.25z" fill="#232323"/><path fill-rule="evenodd" clip-rule="evenodd" d="M80.323 48.911c0 11.896-9.527 21.54-21.279 21.54s-21.279-9.644-21.279-21.54c0-11.896 9.527-21.54 21.279-21.54s21.279 9.644 21.279 21.54zm-10.628-5.89c-.704.736-1.314 1.045-1.501 1.14l-.047.048c-4.106-.88-5.584-3.017-5.584-3.017 3.871-.023 7.367.903 9.924 2.47 0 0-1.384-.45-2.792-.64z" fill="#595858"/><path d="M73.988 42.451a12.02 12.02 0 0 1 2.323 7.125c0 3.111-1.267 5.985-3.425 8.312l1.314 4.964h3.988l4.2-4.821 1.125-7.054.235-4.203-4.153-4.75-5.607.427z" fill="#505050"/><path d="M72.485 59.395c2.472-2.471 3.999-5.867 3.999-9.614 0-2.219-.535-4.314-1.484-6.167" stroke="#232323" stroke-width="1.254"/><path d="M27.771 63.422l.727 2.921s8.587 17.835 27.918 24.462c0 0 17.588-7.6 25.4-20.496l-10.784-9.523s-5.161 4.156-12.833 4.156c-7.671 0-18.088-4.631-18.088-14.178s10.792-13.039 10.792-13.039l-4.598-1.14H34.55l-7.46 18.192.68 8.645z" fill="#505050"/><path d="M92.733 43.372c-.328-.332-8.699-10.615-34.81-19.711-.826-.572-1.273-.748-1.342-.53-24.254 6.261-36.153 19.419-36.153 20.241 0 .823 3.472 13.186 5.724 18.22.188.428 3.19 5.796 5.42 8.717-1.314-2.921-2.745-5.462-2.745-9.832 0-12.326 9.43-22.348 21.232-22.776.281 0 .586 0 .868.024l-2.816-2.85s11.332-1.923 25.877 6.982c0 0 .212.452 0 1.782 0 0 6.85 2.992 7.437 8.81.587 5.819-3.05 9.144-5.982 9.619 0 0 1.525-2.399-.821-3.681-.493-.285-1.08-.404-1.666-.38-4.48 0-4.997 5.177-4.997 5.177-.047.261-.047.523-.047.784 0 0-.75 7.576 12.575 7.433 0 0 6.757-7.742 8.54-14.7.656-2.565 1.126-4.489 1.43-5.914.752-2.019 1.479-4.992 2.183-7.154l.093-.26z" fill="#232323"/><path fill-rule="evenodd" clip-rule="evenodd" d="M57.308 22.198c3.707 1.236 21.56 7.653 35.684 20.005l.328.242-.07.411c0 .097-1.549 9.494-6.757 20.053-3.073 6.224-6.804 11.649-11.073 16.105-5.256 5.473-11.332 9.517-18.112 12.036l-.399.145-.422.17-.4-.145-.398-.146c-6.78-2.518-12.88-6.563-18.111-12.036-4.27-4.48-8-9.88-11.074-16.105-4.992-10.145-6.6-19.177-6.746-19.993a2.294 2.294 0 0 0-.01-.06l-.07-.411.304-.267C34.105 29.852 51.96 23.434 55.666 22.2l.82-.267.47.145.352.121zm17.08 55.799c4.175-4.36 7.812-9.663 10.815-15.742 4.504-9.13 6.217-17.34 6.569-19.205-14.476-12.52-32.798-18.769-35.285-19.592-2.51.823-20.81 7.072-35.285 19.592.352 1.89 2.041 10.099 6.569 19.253 3.003 6.08 6.64 11.359 10.815 15.718 5.185 5.4 11.191 9.348 17.9 11.794 6.71-2.446 12.716-6.418 17.901-11.818z" fill="#505050"/><defs><filter id="filter0_f" x="127.762" y="18.578" width="76.476" height="76.476" filterUnits="userSpaceOnUse" color-interpolation-filters="sRGB"><feFlood flood-opacity="0" result="BackgroundImageFix"/><feBlend in="SourceGraphic" in2="BackgroundImageFix" result="shape"/><feGaussianBlur stdDeviation="4.077" result="effect1_foregroundBlur"/></filter><filter id="filter1_d" x="72" y="11.816" width="88" height="88" filterUnits="userSpaceOnUse" color-interpolation-filters="sRGB"><feFlood flood-opacity="0" result="BackgroundImageFix"/><feColorMatrix in="SourceAlpha" values="0 0 0 0 0 0 0 0 0 0 0 0 0 0 0 0 0 0 127 0"/><feOffset/><feGaussianBlur stdDeviation="2"/><feColorMatrix values="0 0 0 0 0.0705882 0 0 0 0 0.0705882 0 0 0 0 0.0705882 0 0 0 1 0"/><feBlend in2="BackgroundImageFix" result="effect1_dropShadow"/><feBlend in="SourceGraphic" in2="effect1_dropShadow" result="shape"/></filter><filter id="filter2_f" x="70.095" y="10.911" width="90.81" height="90.81" filterUnits="userSpaceOnUse" color-interpolation-filters="sRGB"><feFlood flood-opacity="0" result="BackgroundImageFix"/><feBlend in="SourceGraphic" in2="BackgroundImageFix" result="shape"/><feGaussianBlur stdDeviation="4.077" result="effect1_foregroundBlur"/></filter><filter id="filter3_d" x="2" y="1.816" width="109" height="109" filterUnits="userSpaceOnUse" color-interpolation-filters="sRGB"><feFlood flood-opacity="0" result="BackgroundImageFix"/><feColorMatrix in="SourceAlpha" values="0 0 0 0 0 0 0 0 0 0 0 0 0 0 0 0 0 0 127 0"/><feOffset/><feGaussianBlur stdDeviation="2"/><feColorMatrix values="0 0 0 0 0.0705882 0 0 0 0 0.0705882 0 0 0 0 0.0705882 0 0 0 1 0"/><feBlend in2="BackgroundImageFix" result="effect1_dropShadow"/><feBlend in="SourceGraphic" in2="effect1_dropShadow" result="shape"/></filter><filter id="filter4_f" x=".903" y=".719" width="111.194" height="111.194" filterUnits="userSpaceOnUse" color-interpolation-filters="sRGB"><feFlood flood-opacity="0" result="BackgroundImageFix"/><feBlend in="SourceGraphic" in2="BackgroundImageFix" result="shape"/><feGaussianBlur stdDeviation="4.261" result="effect1_foregroundBlur"/></filter></defs></svg>
